X: 141
M: C
L: 1/8
K: G
d | gedB c2(ce) | gedB A2(Ae) | gedB cdeg | dcBA G2(G ||
d)| (ge).d.B (cd).e.f | gddB A2(Ae) | (gd).e.B (cd).e.g | dcBA G2G |]


